!!!!SEGMENT: pl-kk--kk-i-1--029_anonim--sanguine-proprio.krn
!!!cenid: 15xx:742
!!!COM: Anonim
!!!COM-rismID: pe30004985
!!!CDT:
!!!CNT:
!!!OTL: Sanguine proprio
!!!PDT:
!!!AGN:
!!!SMS-siglum: PL-Kk
!!!SMS-shelfmark: Kk.I.1
!!!SMS-shelfwork: 029 W
!!!SMS-variant:
!!!SMS-altvar:
!!!NIFC-rismSourceID: 300257954
!!!NIFC-rismChildID: 300257983
!!!NIFC-islandoraID: pl-kk:1
!!!URL-pdf-islandora: https://repozytorium.nifc.pl/islandora/object/pl-kk%3A1/datastream/PDF/view
!!!URL-scan: https://polish.musicsources.pl/pl/lokalizacje/galeria/rekopisy/5736 @EN{Scan on Polish Music Sources Website} @PL{Skany w portalu Dziedzictwo Muzyki Polskiej w otwartym dostępie}
!!!IIIF: https://repozytorium.nifc.pl/islandora/object/pl-kk%3A1/datastream/IIIF/view
!!!ONB-nifc: UWAGA: Cantus (s. 117v-118r, skan 0120), Altus (s. 112v-113r, skan 0306), Tenor (s. 101v-102r, skan 0492), Bassus (s. 107r-v, skan 0669-0670).
!!!AIN: 1 alto 1 bass 1 soprn 1 tenor 1 vox
!!!key: G:mix
**kern	**text	**kern	**text	**kern	**kern	**text	**kern	**text
*part5	*part5	*part4	*part4	*part3	*part2	*part2	*part1	*part1
*staff5	*staff5	*staff4	*staff4	*staff3	*staff2	*staff2	*staff1	*staff1
*I"BASSVS	*	*I"TENOR	*	*I"[QVINTVS]	*I"ALTVS	*	*I"CANTVS	*
*I'B	*	*I'T	*	*I'[Q]	*I'A	*	*I'C	*
*ICvox	*	*ICvox	*	*ICvox	*ICvox	*	*ICvox	*
*Ibass	*	*Itenor	*	*Ivox	*Ialto	*	*Isoprn	*
*clefF4	*	*clefC3	*	*clefC3	*clefC3	*	*clefC2	*
*k[]	*	*k[]	*	*k[]	*k[]	*	*k[]	*
*G:mix	*	*G:mix	*	*G:mix	*G:mix	*	*G:mix	*
*M2/1	*	*M2/1	*	*M2/1	*M2/1	*	*M2/1	*
*met(c|)	*	*met(c|)	*	*met(c|)	*met(c|)	*	*met(c|)	*
=1	=1	=1	=1	=1	=1	=1	=1	=1
*xywh-#669:5811,2143,4351,815	*	*xywh-#492:1275,354,4264,1028	*	*	*xywh-#306:1280,575,4241,1028	*	*xywh-#120:1470,482,4090,996	*
!LO:TX:a:t=Ad Equales 5 Vocum	!	!LO:TX:a:t=Ad Equales 5 Vocum	!	!LO:TX:t=P:problem=głosu Quintus nie ma w Kk I.1\nJest w Kk I.360\nJakby co, to mam przepisany. 	!LO:TX:a:t=Ad Equales 5. Vocum	!	!LO:TX:a:t=Ad Equales 5 Vocum	!
1D	SAn-	2r	.	0ryy	0r	.	0r	.
.	.	1d	SAn-	.	.	.	.	.
1G	-gui-	.	.	.	.	.	.	.
.	.	1g	-gui-	.	.	.	.	.
=2	=2	=2	=2	=2	=2	=2	=2	=2
2G\	-ne	.	.	0ryy	2r	.	1r	.
1B	pro-	2g\	-ne	.	1G	SAn-	.	.
.	.	2g\	pro-	.	.	.	1d	SAn-
2G\	-pri-	2G/	-pri-	.	1d	-gui-	.	.
=3	=3	=3	=3	=3	=3	=3	=3	=3
0D	-o	0A	-o	0ryy	.	.	1a	-gui-
.	.	.	.	.	2d\	-ne	.	.
.	.	.	.	.	2.f\	pro-	1a,	-ne
.	.	.	.	.	4g\	.	.	.
=4	=4	=4	=4	=4	=4	=4	=4	=4
1r	.	1r	.	0ryy	4a\	.	1cc	pro-
.	.	.	.	.	4g\	.	.	.
.	.	.	.	.	1g	.	.	.
1D	re-	2.A/	re-	.	.	.	1a	.
.	.	.	.	.	2f\	-pri-	.	.
.	.	4B/	.	.	.	.	.	.
=5	=5	=5	=5	=5	=5	=5	=5	=5
2A\	-de-	2c/	-de-	0ryy	2e,\	-o	2a\	-pri-
2F\	-mi-	2A/	-mi-	.	2f\	re-	2a,\	-o
1G	-ſti	2B,/	-ſti	.	2d\	-de-	2.g\	re-
.	.	2G/	nos	.	2e\	-mi-	.	.
.	.	.	.	.	.	.	4g\	-de-
=6	=6	=6	=6	=6	=6	=6	=6	=6
1F	nos	2c/	De-	0ryy	2f\	-ſti	2a\	-ſti
.	.	2A,/	-us	.	4c/	nos	2f\	nos
.	.	.	.	.	4d\	.	.	.
0E	De-	0G	il-	.	0e	De-	1.g	De-
=7	=7	=7	=7	=7	=7	=7	=7	=7
.	.	.	.	0ryy	.	.	.	.
.	.	.	.	.	.	.	4f\	.
.	.	.	.	.	.	.	4e/	.
*	*	*	*	*	*custos:B	*	*custos:d	*
2D,/	-us	1d	-luc	.	1A	-us	1f#X	-us
1D\	il-	.	.	.	.	.	.	.
!	!	!	!	!	!LO:LB:g=original	!	!LO:LB:g=original	!
=8	=8	=8	=8	=8	=8	=8	=8	=8
*	*	*custos:f	*	*	*	*	*	*
*	*	*	*	*	*xywh-#306:1414,1429,4055,842	*	*xywh-#120:1470,1375,4136,892	*
.	.	1d	et	0ryy	2r	.	1d	il-
*custos:F	*	*	*	*	*	*	*	*
2G\	-luc	.	.	.	2B/	il-	.	.
*xywh-#669:5976,2879,4225,906	*	*xywh-#492:1415,1318,4090,836	*	*	*	*	*	*
!LO:LB:g=original	!	!LO:LB:g=original	!	!	!	!	!	!
2F\	et	1f	re-	.	2c/	-luc	1a	-luc
2.D/	re-	.	.	.	2d\	et	.	.
=9	=9	=9	=9	=9	=9	=9	=9	=9
.	.	1d	-ue-	0ryy	2A/	.	1a	et
4E\	.	.	.	.	.	.	.	.
4F\	.	.	.	.	1f	re-	.	.
4G\	.	.	.	.	.	.	.	.
1A	.	1c	-bis	.	.	.	1cc	re-
.	.	.	.	.	2e\	-ue-	.	.
=10	=10	=10	=10	=10	=10	=10	=10	=10
1D	-ue-	0d	vn-	0ryy	2d,\	-bis,	1a	-ue-
.	.	.	.	.	2A/	et	.	.
1G	-bis	.	.	.	2B/	re-	1g	-bis
.	.	.	.	.	2B/	-ue-	.	.
=11	=11	=11	=11	=11	=11	=11	=11	=11
2r	.	1c	-de	0ryy	1A	-bis	1a	un-
2F\	un-	.	.	.	.	.	.	.
2G\	-de	1B	pri-	.	2r	.	1g	-de
2G\	pri-	.	.	.	2d\	un-	.	.
=12	=12	=12	=12	=12	=12	=12	=12	=12
2D,/	-mus	1A	-mus	0ryy	2a\	-de	1f	pri-
1F	Cor-	.	.	.	2a\	pri-	.	.
.	.	1c	Cor-	.	2f\	-mus	1e	-mus
2C/	-ru-	.	.	.	1g	Cor-	.	.
=13	=13	=13	=13	=13	=13	=13	=13	=13
1G	-it	1d	-ru-	0ryy	.	.	1g	Cor-
.	.	.	.	.	2d\	-ru-	.	.
*	*	*	*	*	*custos:d	*	*	*
1r	.	1c	-it	.	1f	-it	1a	-ru-
!	!	!	!	!	!LO:LB:g=original	!	!	!
=14	=14	=14	=14	=14	=14	=14	=14	=14
*	*	*	*	*	*xywh-#306:1449,2231,4061,830	*	*	*
1G	un-	0r	.	0ryy	1d	pa-	1g	-it
*	*	*	*	*	*	*	*lig	*
2D/	-de	.	.	.	1.d	-ra-	1f#X	pa-
2D/	pri-	.	.	.	.	.	.	.
=15	=15	=15	=15	=15	=15	=15	=15	=15
*	*	*lig	*	*	*	*	*	*
2G\	-mus	1B	pa-	0ryy	.	.	1g	.
2G\	cor-	.	.	.	2d\	-di-	.	.
*custos:C	*	*	*	*	*	*	*	*
*	*	*	*	*	*	*	*Xlig	*
*xywh-#670:1505,682,4170,828	*	*	*	*	*	*	*	*
2C/	-ru-	1c	.	.	4e\	-ſi	1e	-ra-
.	.	.	.	.	4f\	.	.	.
!LO:LB:g=original	!	!	!	!	!	!	!	!
2C,/	-it	.	.	.	1g	co-	.	.
*	*	*Xlig	*	*	*	*	*	*
=16	=16	=16	=16	=16	=16	=16	=16	=16
1D	pa-	1A	-ra-	0ryy	.	.	1d	-di-
.	.	.	.	.	2f\	.	.	.
*	*	*	*	*	*	*	*custos:d	*
2E\	-ra-	1G	-di-	.	1g	-la	1c	-ſi
2E\	-di-	.	.	.	.	.	.	.
!	!	!	!	!	!	!	!LO:LB:g=original	!
=17	=17	=17	=17	=17	=17	=17	=17	=17
*	*	*	*	*	*	*	*xywh-#120:1487,2145,4090,741	*
2D/	-ſi	1F	-ſi	0ryy	1r	.	1d	co-
2D/	co-	.	.	.	.	.	.	.
1GG	-la,	1G	co-	.	2r	.	1d	-la
.	.	.	.	.	1G	iu-	.	.
=18	=18	=18	=18	=18	=18	=18	=18	=18
*	*	*custos:D	*	*	*	*	*	*
1GG	Ju-	1G	-la	0ryy	.	.	2r	.
.	.	.	.	.	1d,	-dex	1g	iu-
*	*	*xywh-#492:1403,2038,4095,859	*	*	*	*	*	*
!	!	!LO:LB:g=original	!	!	!	!	!	!
1D	-dex	1r	.	.	.	.	.	.
.	.	.	.	.	2d,\	dum	4f\	.
.	.	.	.	.	.	.	4e/	-dex
=19	=19	=19	=19	=19	=19	=19	=19	=19
1D	dum	2r	.	0ryy	2f\	ue-	4d/	.
.	.	.	.	.	.	.	4e/	.
.	.	2D/	iu-	.	2d\	-ne-	2.f\	.
1F	ue-	1A	-dex	.	2c,/	-ris	.	.
.	.	.	.	.	.	.	4g\	.
.	.	.	.	.	2.f\	.	1a,	.
=20	=20	=20	=20	=20	=20	=20	=20	=20
1D	-ne-	1A,	dum	0ryy	.	.	.	.
.	.	.	.	.	4d\	iu-	.	.
.	.	.	.	.	2.f\	-di-	2f\	dum
1C	-ris	1c	ve-	.	.	.	2g\	Ve-
.	.	.	.	.	4e\	-ca-	.	.
*	*	*	*	*	*custos:d	*	*	*
.	.	.	.	.	2e\	-re	2g\	-ne-
!	!	!	!	!	!LO:LB:g=original	!	!	!
=21	=21	=21	=21	=21	=21	=21	=21	=21
*	*	*	*	*	*xywh-#306:1505,2910,4177,854	*	*	*
1D	iu-	2.A/	.	0ryy	2d\	Se-	1f	-ris
.	.	.	.	.	4A/	.	.	.
.	.	8G/L	-ne-	.	4B/	.	.	.
.	.	8F/J	.	.	.	.	.	.
1C	-di-	2G/	-ris	.	1c	.	1r	.
.	.	2A/	iu-	.	.	.	.	.
=22	=22	=22	=22	=22	=22	=22	=22	=22
1BB	-ca-	4B/	-di-	0ryy	2d\	.	2r	.
.	.	4c/	.	.	.	.	.	.
.	.	4d\	.	.	2B/	-cu-	2d/	iu-
.	.	4B/	-ca-	.	.	.	.	.
*custos:BB	*	*	*	*	*	*	*	*
1AA	-re	4c/	.	.	1e	-lum	2a\	.
.	.	4d\	.	.	.	.	.	.
.	.	4e\	.	.	.	.	2a\	-di-
.	.	4c/	.	.	.	.	.	.
!LO:LB:g=original	!	!	!	!	!	!	!	!
=23	=23	=23	=23	=23	=23	=23	=23	=23
*xywh-#670:1493,1372,4026,839	*	*	*	*	*	*	*	*
1BB	ſe-	1d	-re	0ryy	0r	.	2g\	-ca-
.	.	.	.	.	.	.	2b#X\	-re
*	*	*lig	*	*	*	*	*	*
1C	-cu-	1e	se-	.	.	.	4a\	Se-
.	.	.	.	.	.	.	4g\	.
.	.	.	.	.	.	.	1a	.
=24	=24	=24	=24	=24	=24	=24	=24	=24
0D	-lum	1.d	.	0ryy	1r	.	.	.
.	.	.	.	.	.	.	4f\	.
.	.	.	.	.	.	.	4e/	.
*	*	*	*	*	*	*	*xywh-#120:1510,2838,4055,967	*
.	.	.	.	.	2r	.	2f#X\	.
*	*	*	*	*	*	*	*custos:f#	*
*	*	*Xlig	*	*	*	*	*	*
.	.	2d\	-cu-	.	1d	iu-	2f#\	-cu-
!	!	!	!	!	!	!	!LO:LB:g=original	!
=25	=25	=25	=25	=25	=25	=25	=25	=25
0r	.	2G/	-lum	0ryy	.	.	1g	-lum
.	.	1g	.	.	2d\	-di-	.	.
*	*	*	*	*	*	*	*lig	*
.	.	.	.	.	1.d	-ca-	1a	ſe-
*	*	*custos:g	*	*	*	*	*	*
.	.	2f\	ſe-	.	.	.	.	.
!	!	!LO:LB:g=original	!	!	!	!	!	!
=26	=26	=26	=26	=26	=26	=26	=26	=26
*	*	*xywh-#492:1411,2805,4159,836	*	*	*	*	*	*
0r	.	4g\	.	0ryy	.	.	1b	.
.	.	4f\	.	.	.	.	.	.
.	.	4e\	.	.	2G/	-re	.	.
.	.	4d\	.	.	.	.	.	.
*	*	*	*	*	*	*	*Xlig	*
.	.	2.c/	.	.	2r	.	2.cc\	.
.	.	.	.	.	1g	ſe-	.	.
.	.	4c/	-cu-	.	.	.	4b\	.
=27	=27	=27	=27	=27	=27	=27	=27	=27
*	*	*	*	*	*	*	*lig	*
1D	da	1d,	-lum	0ryy	.	.	1a	.
.	.	.	.	.	2f\	-cu-	.	.
*	*	*	*	*	*	*	*col	*
1G	no-	1G	da	.	1g	-lu(m)	2.b\	.
*	*	*	*	*	*	*	*Xlig	*
.	.	.	.	.	.	.	4b\	-cu-
*	*	*	*	*	*	*	*Xcol	*
=28	=28	=28	=28	=28	=28	=28	=28	=28
2G\	-bis	1d	no-	0ryy	2r	.	1g	-lum
1B	qu(ae)-	.	.	.	2d\	da	.	.
.	.	1d,	-bis	.	2f\	no-	2r	.
2G\	-ſu-	.	.	.	2g\	-bis	2d/	da
=29	=29	=29	=29	=29	=29	=29	=29	=29
1F	-mus	1f	qu(ae)-	0ryy	2.a\	qu(ae)-	4a\	no-
.	.	.	.	.	.	.	4a\	-bis
.	.	.	.	.	.	.	1cc	qu(ae)-
.	.	.	.	.	4a\	-ſu-	.	.
1G	sem-	1d	-ſu-	.	2g,\	-mus	.	.
.	.	.	.	.	1g	ſem-	2b\	-ſu-
=30	=30	=30	=30	=30	=30	=30	=30	=30
2C/	-pi-	1c,	-mus	0ryy	.	.	2cc,\	-mus
2F\	-ter-	.	.	.	2f\	-pi-	2a\	ſem-
1BB-X	-na(m)	1d	sem-	.	2f\	-ter-	2b-X\	-pi-
*	*	*	*	*	*custos:e	*	*	*
.	.	.	.	.	2f\	-na(m)	2b-\	-ter-
!	!	!	!	!	!LO:LB:g=original	!	!	!
=31	=31	=31	=31	=31	=31	=31	=31	=31
*	*	*	*	*	*	*	*custos:g	*
*	*	*	*	*	*xywh-#306:5849,561,4264,900	*	*	*
2.C/	re-	1c	-pi-	0ryy	2.e\	re-	1g	-nam
4C/	-qui-	.	.	.	4e\	-qui-	.	.
*custos:D	*	*	*	*	*	*	*	*
!	!	!	!	!	!	!	!LO:LB:g=original	!
*	*	*	*	*	*	*	*lig	*
*	*	*	*	*	*	*	*xywh-#120:6054,666,4171,840	*
1G	-em	1B	-ter-	.	0d	-em	1g	re-
!LO:LB:g=original	!	!	!	!	!	!	!	!
=32	=32	=32	=32	=32	=32	=32	=32	=32
*xywh-#670:1505,2178,4181,816	*	*	*	*	*	*	*	*
2r	.	1A	-nam	0ryy	.	.	1.a	.
2D/	in	.	.	.	.	.	.	.
2.A\	ſan-	1c	re-	.	2r	.	.	.
*	*	*	*	*	*	*	*Xlig	*
.	.	.	.	.	1A	sem-	2a\	-qui-
4G\	.	.	.	.	.	.	.	.
=33	=33	=33	=33	=33	=33	=33	=33	=33
2F\	.	1d	-qui-	0ryy	.	.	2a,\	-em
2G\	-cto-	.	.	.	2B/	-pi-	2g,\	in
*	*	*custos:B	*	*	*	*	*	*
2C,/	-ru(m)	1c	-em	.	2c/	-ter-	2g\	sanc-
2F\	in	.	.	.	2A/	-nam	2a\	.
!	!	!LO:LB:g=original	!	!	!	!	!	!
=34	=34	=34	=34	=34	=34	=34	=34	=34
*	*	*xywh-#492:6024,640,4351,807	*	*	*	*	*	*
1G	ſanc-	1B	in	0ryy	2.G/	re-	2b,\	-to-
.	.	.	.	.	.	.	2g\	-ru(m)
.	.	.	.	.	4G/	-qui-	.	.
1C	-to-	1c	sanc-	.	1G	-em	4a\	pa-
.	.	.	.	.	.	.	4g\	.
.	.	.	.	.	.	.	1g\	.
=35	=35	=35	=35	=35	=35	=35	=35	=35
1D	-rum	1A	-to-	0ryy	2r	.	.	.
.	.	.	.	.	1d	in	2f#X\	-tri-
1E	pa-	1G	-rum	.	.	.	1g	-a
.	.	.	.	.	2c/	ſanc-	.	.
=36	=36	=36	=36	=36	=36	=36	=36	=36
1D	-tri-	1F	pa-	0ryy	1d	-to-	2r	.
.	.	.	.	.	.	.	1d	pa-
0GG	-a	1G	-tri-	.	0B	-rum	.	.
.	.	.	.	.	.	.	2g\	-tri-
=37	=37	=37	=37	=37	=37	=37	=37	=37
.	.	1G	-a	0ryy	.	.	1g	-a
1r	.	1F	in	.	2.A/	pa-	1r	.
.	.	.	.	.	4B/	.	.	.
=38	=38	=38	=38	=38	=38	=38	=38	=38
1r	.	1A	qua	0ryy	2.c/	.	2r	.
.	.	.	.	.	.	.	1c	in
.	.	.	.	.	4B/	.	.	.
2r	.	1c	ti-	.	2A/	-tri-	.	.
2C/	in	.	.	.	2G/	-a	2e/	qua
=39	=39	=39	=39	=39	=39	=39	=39	=39
2E\	qua	1B,	-bi	0ryy	2g\	in	2g\	ti-
*	*	*	*	*	*	*	*custos:a	*
2G\	.	.	.	.	2d\	qua	2g\	-bi
*	*	*lig	*	*	*	*	*	*
*	*	*	*	*	*	*	*xywh-#120:6042,1390,4374,857	*
!	!	!	!	!	!	!	!LO:LB:g=original	!
2.F\	ti-	1c	Ca-	.	1f	ti-	2.a\	ca-
4E\	-bi	.	.	.	.	.	4a\	-na-
=40	=40	=40	=40	=40	=40	=40	=40	=40
*	*	*	*	*	*custos:f	*	*	*
2.D/	.	1d	.	0ryy	1f	-bi	2a,\	-mus
.	.	.	.	.	.	.	2f\	Al-
4E\	Ca-	.	.	.	.	.	.	.
*	*	*Xlig	*	*	*	*	*	*
*	*	*	*	*	*xywh-#306:5849,1346,4252,795	*	*	*
!	!	!	!	!	!LO:LB:g=original	!	!	!
1F	-na-	1A	-na-	.	2r	.	4a\	-le-
.	.	.	.	.	.	.	4g\	.
.	.	.	.	.	1f	Ca-	4a\	.
.	.	.	.	.	.	.	4b\	.
=41	=41	=41	=41	=41	=41	=41	=41	=41
*custos:F	*	*	*	*	*	*	*	*
1C	-mus	1G	-mus	0ryy	.	.	2cc\	.
.	.	.	.	.	2e\	-na-	2cc\	-lu-
*xywh-#670:1513,2849,4141,954	*	*	*	*	*	*	*	*
!LO:LB:g=original	!	!	!	!	!	!	!	!
2r	.	1F	Al-	.	1f	.	1a,	-ia
2F\	Al-	.	.	.	.	.	.	.
=42	=42	=42	=42	=42	=42	=42	=42	=42
4D/	.	1A	-le-	0ryy	1f	-mus	2f\	al-
4C/	.	.	.	.	.	.	.	.
4D/	-le-	.	.	.	.	.	4a\	-le-
4E\	.	.	.	.	.	.	4g\	.
2.F\	.	1A	-lu-	.	2r	.	4a\	.
.	.	.	.	.	.	.	4b\	.
.	.	.	.	.	2c/	Al-	2.cc\	.
4F\	-lu-	.	.	.	.	.	.	.
=43	=43	=43	=43	=43	=43	=43	=43	=43
1C	-ia	0c	.	0ryy	4e\	-le-	.	.
.	.	.	.	.	4d\	.	4cc\	-lu-
.	.	.	.	.	4e\	.	2cc,\	-ia
.	.	.	.	.	4f\	.	.	.
*	*	*	*	*	*	*	*	*ij
2r	.	.	.	.	2g\	-lu-	2c/	al-
2C/	.	.	.	.	2g\	-ia	4e/	-le-
.	.	.	.	.	.	.	4d/	.
=44	=44	=44	=44	=44	=44	=44	=44	=44
4E\	Al-	[0G;<l	-ia	0ryy	2G/	Al-	4e/	.
4D/	.	.	.	.	.	.	4f\	.
4E\	-le-	.	.	.	4B/	-le-	2.g\	.
4F\	.	.	.	.	4A/	.	.	.
2.G\	.	.	.	.	4B/	.	.	.
.	.	.	.	.	4c/	.	4a\	.
.	.	.	.	.	2d\	.	2b\	.
4G\	-lu-	.	.	.	.	.	.	.
*clefF3	*	*	*	*	*	*	*	*
=45	=45	=45	=45	=45	=45	=45	=45	=45
2C/	-ia	0G_	.	0ryy	2e\	-lu-	2cc\	.
2G\	Al-	.	.	.	1d	-ia	2.b\	-lu-
4B\	.	.	.	.	.	.	.	.
4A\	-le-	.	.	.	.	.	4a\	.
*	*	*	*	*	*	*ij	*	*
4B\	.	.	.	.	2G/	Al-	2g\	.
4c\	.	.	.	.	.	.	.	.
=46	=46	=46	=46	=46	=46	=46	=46	=46
2.d\	.	0G_	.	0ryy	4B/	-le-	[0g;<l	-ia
.	.	.	.	.	4A/	.	.	.
.	.	.	.	.	4B/	.	.	.
4c\	.	.	.	.	4c/	.	.	.
2.B\	.	.	.	.	2d\	.	.	.
.	.	.	.	.	4B/	.	.	.
4A\	.	.	.	.	4c/	.	.	.
=47	=47	=47	=47	=47	=47	=47	=47	=47
4G\	.	0G_	.	0ryy	2d\	.	0g_	.
4F/	.	.	.	.	.	.	.	.
4E/	.	.	.	.	2.e\	-lu-	.	.
4D/	.	.	.	.	.	.	.	.
2C/	.	.	.	.	.	.	.	.
.	.	.	.	.	4d\	.	.	.
2C/	-lu-	.	.	.	2c/	.	.	.
=48	=48	=48	=48	=48	=48	=48	=48	=48
0GG;<	-ia	0G]	.	0ryy	0B;<	-ia	0g]	.
==	==	==	==	==	==	==	==	==
*-	*-	*-	*-	*-	*-	*-	*-	*-
!!!system-decoration: [(s1,s2,s3,s4,s5)]
!!!RDF**kern: l = terminal long
!!!RDF**kern: > =above
!!!RDF**kern: < = below
!!!ENC: Mateusz Solarz
!!!END: 2022-03-01
!!!ENC: Natalia Wrzos
!!!END: 2022-03-12
!!!ENC-iiif: Elżbieta Cabała
!!!END-iiif: 2022-09-03
!!!YEC: Copyright 2022 Narodowy Instytut Fryderyka Chopina (https://polishscores.org)
!!!YEM: License CC-BY-4.0 (https://creativecommons.org/licenses/by/4.0)
